assets/icons/qvision/drive_folder_upload.svg

<svg xmlns="http://www.w3.org/2000/svg" height="24" viewBox="0 0 24 24" width="24"><path d="M0 0h24v24H0z" fill="none"/><path d="M20 6h-8l-2-2H4c-1.1 0-1.99.9-1.99 2L2 18c0 1.1.9 2 2 2h16c1.1 0 2-.9 2-2V8c0-1.1-.9-2-2-2zm0 12H4V8h16v10zM8 13.01l1.41 1.41L11 12.84V17h2v-4.16l1.59 1.59L16 13.01 12.01 9 8 13.01z"/></svg>

<svg width="24" height="24" viewBox="0 0 24 24" fill="none" xmlns="http://www.w3.org/2000/svg">
<g clip-path="url(#clip0_147_2859)">
<path d="M20 6H12L10 4H4C2.9 4 2.01 4.9 2.01 6L2 18C2 19.1 2.9 20 4 20H20C21.1 20 22 19.1 22 18V8C22 6.9 21.1 6 20 6ZM20 18H4V8H20V18ZM8 13.01L9.41 14.42L11 12.84V17H13V12.84L14.59 14.43L16 13.01L12.01 9L8 13.01Z" fill="#323232"/>
</g>
<defs>
<clipPath id="clip0_147_2859">
<rect width="24" height="24" fill="white"/>
</clipPath>
</defs>
</svg>
